src/assets/icons/impact.svg

<svg width="124" height="123" xmlns="http://www.w3.org/2000/svg"><g fill-rule="evenodd"><path d="M61.997 6.314c-30.679 0-55.638 24.761-55.638 55.197 0 30.435 24.959 55.196 55.638 55.196s55.638-24.761 55.638-55.196c0-30.436-24.959-55.197-55.638-55.197zm0 116.702C27.812 123.016 0 95.425 0 61.511S27.812.006 61.997.006s61.997 27.591 61.997 61.505-27.812 61.505-61.997 61.505z"/><path d="M61.998 20.818c-14.852 0-27.885 7.871-35.085 19.629 2.716-.732 4.84-.751 5.036-.751.415 0 9.438.089 14.47 6.812.271-.588.552-1.167.845-1.733 1.071.223 2.195.433 3.376.62 2.721.43 5.894.762 9.43.841v13.312H49.414a32.812 32.812 0 01-.661 3.823h11.316v13.316c-3.534.078-6.71.406-9.43.836a68.917 68.917 0 00-3.122.569 41.758 41.758 0 01-2.202-4.899c-1.583 3.5-3.607 7.246-6.071 11.23a58.967 58.967 0 016.334-1.948c2.563 4.224 5.897 8.4 9.991 12.519a34.383 34.383 0 01-17.362-8.917c-.976 1.529-2.01 3.09-3.11 4.687l-.618.896a41.037 41.037 0 0027.518 10.543c22.617 0 41.018-18.254 41.018-40.692S84.614 20.818 61.998 20.818zm-1.929 73.211c-4.314-4.101-7.814-8.244-10.493-12.418a67.74 67.74 0 0110.493-1.086v13.504zM45.253 40.381c-3.715-.953-6.431-2.007-7.871-2.625a34.413 34.413 0 0117.796-9.661c-2.918 2.765-6.745 6.943-9.925 12.286zm14.816 2.029a66.247 66.247 0 01-8.666-.767 64.174 64.174 0 01-2.124-.371c3.759-5.931 8.294-10.249 10.79-12.388V42.41zM96.3 59.548H84.754c-.006-.115-.007-.228-.012-.341-.312-5.754-1.947-10.949-4.164-15.471a74.642 74.642 0 008.689-2.936c4.068 5.26 6.629 11.721 7.033 18.748zm-9.707-21.813a70.652 70.652 0 01-7.899 2.531c-3.148-5.28-6.92-9.413-9.805-12.158a34.423 34.423 0 0117.704 9.627zm-22.669-8.908c2.461 2.109 6.991 6.416 10.76 12.355a68.58 68.58 0 01-10.76 1.209V28.827zm0 17.389a72.297 72.297 0 0012.77-1.54c2.234 4.311 3.91 9.283 4.201 14.763l.004.11H63.924V46.216zm0 17.155H80.86c-.338 4.963-1.812 9.909-4.416 14.82a72.234 72.234 0 00-12.52-1.489V63.371zm0 30.726V80.531c3.297.104 6.806.453 10.477 1.148-2.677 4.175-6.171 8.317-10.477 12.418zm4.574.885c4.047-4.088 7.346-8.233 9.89-12.424a70.782 70.782 0 018.276 2.652 34.395 34.395 0 01-18.166 9.772zM89.33 82.143a74.362 74.362 0 00-9.021-3.033c2.623-5.189 4.097-10.442 4.416-15.738h11.584c-.383 7.032-2.926 13.501-6.979 18.771z" fill="currentColor"/><path d="M44.279 50.213c-3.539-6.655-11.973-6.731-12.331-6.731-.358 0-8.792.076-12.332 6.731-4.03 7.58.233 20.863 12.332 38.414 12.099-17.551 16.363-30.834 12.331-38.414zm-12.33 13.141c-3.88 0-7.026-3.122-7.026-6.972 0-3.848 3.146-6.969 7.026-6.969s7.026 3.121 7.026 6.969c0 3.85-3.146 6.972-7.026 6.972z" fill="currentColor"/></g></svg>

<?xml version="1.0" encoding="UTF-8" standalone="no"?>
<svg width="124px" height="123px" viewBox="0 0 124 123" version="1.1" xmlns="http://www.w3.org/2000/svg" xmlns:xlink="http://www.w3.org/1999/xlink" xmlns:sketch="http://www.bohemiancoding.com/sketch/ns">
    <!-- Generator: Sketch 3.3.3 (12081) - http://www.bohemiancoding.com/sketch -->
    <title>about_impact</title>
    <desc>Created with Sketch.</desc>
    <defs></defs>
    <g id="Page-1" stroke-width="1" fill-rule="evenodd" sketch:type="MSPage">
        <g id="about_impact" sketch:type="MSLayerGroup">
            <path d="M61.997,6.314 C31.318,6.314 6.359,31.075 6.359,61.511 C6.359,91.946 31.318,116.707 61.997,116.707 C92.676,116.707 117.635,91.946 117.635,61.511 C117.635,31.075 92.676,6.314 61.997,6.314 L61.997,6.314 L61.997,6.314 Z M61.997,123.016 C27.812,123.016 0,95.425 0,61.511 C0,27.597 27.812,0.006 61.997,0.006 C96.182,0.006 123.994,27.597 123.994,61.511 C123.994,95.425 96.182,123.016 61.997,123.016 L61.997,123.016 L61.997,123.016 Z" id="Fill-1" sketch:type="MSShapeGroup"></path>
            <path d="M61.998,20.818 C47.146,20.818 34.113,28.689 26.913,40.447 C29.629,39.715 31.753,39.696 31.949,39.696 C32.364,39.696 41.387,39.785 46.419,46.508 C46.69,45.92 46.971,45.341 47.264,44.775 C48.335,44.998 49.459,45.208 50.64,45.395 C53.361,45.825 56.534,46.157 60.07,46.236 L60.07,59.548 L49.414,59.548 C49.28,60.773 49.059,62.049 48.753,63.371 L60.069,63.371 L60.069,76.687 C56.535,76.765 53.359,77.093 50.639,77.523 C49.548,77.695 48.512,77.888 47.517,78.092 C46.654,76.462 45.928,74.829 45.315,73.193 C43.732,76.693 41.708,80.439 39.244,84.423 C40.816,83.837 42.948,83.13 45.578,82.475 C48.141,86.699 51.475,90.875 55.569,94.994 C48.903,93.738 42.915,90.566 38.207,86.077 C37.231,87.606 36.197,89.167 35.097,90.764 L34.479,91.66 C41.761,98.208 51.417,102.203 61.997,102.203 C84.614,102.203 103.015,83.949 103.015,61.511 C103.015,39.073 84.614,20.818 61.998,20.818 L61.998,20.818 L61.998,20.818 Z M60.069,94.029 C55.755,89.928 52.255,85.785 49.576,81.611 C52.657,81.045 56.188,80.624 60.069,80.525 L60.069,94.029 L60.069,94.029 Z M45.253,40.381 C41.538,39.428 38.822,38.374 37.382,37.756 C42.116,32.928 48.274,29.48 55.178,28.095 C52.26,30.86 48.433,35.038 45.253,40.381 L45.253,40.381 L45.253,40.381 Z M60.069,42.41 C56.826,42.334 53.908,42.035 51.403,41.643 C50.671,41.529 49.968,41.403 49.279,41.272 C53.038,35.341 57.573,31.023 60.069,28.884 L60.069,42.41 L60.069,42.41 Z M96.3,59.548 L84.754,59.548 C84.748,59.433 84.747,59.32 84.742,59.207 C84.43,53.453 82.795,48.258 80.578,43.736 C83.4,42.973 86.305,42.007 89.267,40.8 C93.335,46.06 95.896,52.521 96.3,59.548 L96.3,59.548 L96.3,59.548 Z M86.593,37.735 C83.899,38.774 81.26,39.609 78.694,40.266 C75.546,34.986 71.774,30.853 68.889,28.108 C75.755,29.5 81.877,32.936 86.593,37.735 L86.593,37.735 L86.593,37.735 Z M63.924,28.827 C66.385,30.936 70.915,35.243 74.684,41.182 C70.87,41.92 67.262,42.28 63.924,42.391 L63.924,28.827 L63.924,28.827 Z M63.924,46.216 C67.86,46.094 72.149,45.64 76.694,44.676 C78.928,48.987 80.604,53.959 80.895,59.439 C80.897,59.477 80.897,59.512 80.899,59.549 L63.924,59.549 L63.924,46.216 L63.924,46.216 Z M63.924,63.371 L80.86,63.371 C80.522,68.334 79.048,73.28 76.444,78.191 C71.991,77.261 67.788,76.823 63.924,76.702 L63.924,63.371 L63.924,63.371 L63.924,63.371 Z M63.924,94.097 L63.924,80.531 C67.221,80.635 70.73,80.984 74.401,81.679 C71.724,85.854 68.23,89.996 63.924,94.097 L63.924,94.097 L63.924,94.097 Z M68.498,94.982 C72.545,90.894 75.844,86.749 78.388,82.558 C81.078,83.236 83.845,84.117 86.664,85.21 C81.851,90.141 75.557,93.635 68.498,94.982 L68.498,94.982 L68.498,94.982 Z M89.33,82.143 C86.25,80.885 83.236,79.888 80.309,79.11 C82.932,73.921 84.406,68.668 84.725,63.372 L96.309,63.372 C95.926,70.404 93.383,76.873 89.33,82.143 L89.33,82.143 L89.33,82.143 Z" id="Fill-4" fill="currentColor" sketch:type="MSShapeGroup"></path>
            <path d="M44.279,50.213 C40.74,43.558 32.306,43.482 31.948,43.482 C31.59,43.482 23.156,43.558 19.616,50.213 C15.586,57.793 19.849,71.076 31.948,88.627 C44.047,71.076 48.311,57.793 44.279,50.213 Z M31.949,63.354 C28.069,63.354 24.923,60.232 24.923,56.382 C24.923,52.534 28.069,49.413 31.949,49.413 C35.829,49.413 38.975,52.534 38.975,56.382 C38.975,60.232 35.829,63.354 31.949,63.354 Z" id="Shape" fill="currentColor" sketch:type="MSShapeGroup"></path>
        </g>
    </g>
</svg>
